X:1
T:Title
%%score { ( 1 3 ) | ( 2 4 ) }
L:1/8
M:4/4
K:Ab
V:1 treble nm="Grand Piano"
V:3 treble 
V:2 bass 
V:4 bass 
V:1
 z4 z2[Q:1/4=88] [A,C][B,D] | [CE][CA][DB][Ec] [DB][CA][DG][EA] | BFF=E F3 [FA] | %3
 [EG] [Gd]3 G2 F>G | [DF]4 [CE]2 [A,C][B,D] | [CE][CA][DB][Ec] [DB][CA][DG][EA] | %6
 [FB][FB][Fc][Fc] [Fd]3 [FA=d] | [EAe] [CA]3 [EAc]2 [DGB]>[EAc] |[M:3/4] [DB]4 z2 | %9
[M:1/4] [CEA]>[C_GA] |[M:4/4] [DFA]2 [Fd]4 [Fd]>[DF] | [CE]2 [Ec]4 cd | e e3 [Ec]2 [EB][EA] | %13
[M:3/4] z2 B4[K:bass] |[M:1/4][K:treble] [EA][EB] |[M:4/4] [Ec]2 e4 cc | [Fd]2 [Bf]4 [Af]2 | %17
 [Ae] [CA]3 [EAc]2 [DGB]>[EAc] |[M:3/4] G2 z2 z2 |] %19
V:2
 z4 z2 [A,,E,][A,,E,] | [A,,A,][A,,A,][A,,A,][A,,A,] [A,,E,][A,,E,][B,,E,][C,A,] | %2
 [D,F,D][D,A,D][D,A,D][D,G,D] [D,A,D]3 [B,,B,] | [E,B,] [E,B,]3 [E,B,E]2 [E,G,D]>[E,G,E] | %4
 [A,,A,]4 [A,,A,]2 [A,,E,][A,,E,] | [A,,A,][A,,A,][A,,A,][A,,A,] [A,,E,][A,,E,][B,,E,][C,A,] | %6
 [D,A,][D,A,][C,=A,][C,A,] [B,,B,]3 _C, | C, F,3 E,2 E,>E, |[M:3/4] z2 E2 A,,2 |[M:1/4] A,>A, | %10
[M:4/4] D,2 [D,A,]4 [D,A,]>[D,A,] | z4 z2[K:treble] [A,E]2 | %12
 [A,CA][K:bass] [A,CE]3 [A,,A,]2 [B,,G,][C,A,] |[M:3/4] [E,A,E]2 [E,G,E]4 |[M:1/4] [C,A,][B,,G,] | %15
[M:4/4] [A,,A,]2[K:treble] [A,CA]4 [A,E_G][A,G] | [D,A,]2 [D,D]4 [=D,_C]2 | [E,C] F,3 E,2 E,>E, | %18
[M:3/4] z2 E2 A,,2 |] %19
V:3
 x8 | x8 | x8 | x8 | x8 | x8 | x8 | x8 |[M:3/4] G2 z2 [CEA]2 |[M:1/4] x2 |[M:4/4] x8 | x8 | x8 | %13
[M:3/4] c2 z2 z[K:bass] D, |[M:1/4][K:treble] x2 |[M:4/4] x8 | x8 | x8 |[M:3/4] [DB]4 [CEA]2 |] %19
V:4
 x8 | x8 | x8 | x8 | x8 | x8 | x8 | x8 |[M:3/4] E,4 z2 |[M:1/4] x2 |[M:4/4] x8 | %11
 [A,,A,]2 [A,,A,]4[K:treble] z B, | x[K:bass] x7 |[M:3/4] x6 |[M:1/4] x2 |[M:4/4] x2[K:treble] x6 | %16
 x8 | x8 |[M:3/4] E,4 z2 |] %19

